X:1
T: London Lasses
C:
R:Reel
Q: 232
K:G
M:4/4
L:1/8
|:G2 BG dG BG|ea ag ef g2|G2 BG dG BG|eg dB AG EF|
G2 BG dG BG|ea ag ef ga|bg ag eg fa|ge dB AG EF:|
|:gf gd e2 dB|dG BG Bd d2|ga bg e2 d2|eg dB AG EF|
gf gd e2 dB|dB ((3BAB) de ga|bg ag eg fa|1ge dB AG EF:|2ge dB G2 G2|
